tools/download-figma-icons/icons/outlined-medium/gas-storage.svg

<svg width="24" height="24" viewBox="0 0 24 24" fill="none" xmlns="http://www.w3.org/2000/svg">
<path fill-rule="evenodd" clip-rule="evenodd" d="M16.4963 11.9822C19.5375 11.8855 21.408 11.2165 22.5 10.5797V13.9652C22.0703 14.383 20.4818 15.5942 16.5 15.733V11.9995C16.5 11.9942 16.4963 11.989 16.4963 11.9822ZM1.50006 16.9682V13.5812C2.67905 14.2697 4.7543 14.9995 8.25004 14.9995C11.7443 14.9995 13.8203 14.2682 15 13.5797V16.9652C14.5433 17.4085 12.792 18.7495 8.25004 18.7495C3.6833 18.7495 1.94106 17.3995 1.50006 16.9682ZM8.25003 8.24949C13.254 8.24949 14.5958 10.8452 14.9183 11.7917C14.349 12.2987 12.5445 13.4995 8.25003 13.4995C4.06954 13.4995 2.25155 12.3655 1.63655 11.8427C2.14505 10.837 3.88129 8.24949 8.25003 8.24949ZM15.75 5.2495C20.7593 5.2495 22.0988 7.85049 22.4182 8.79174C21.8587 9.28974 20.0993 10.4582 15.9533 10.4965C15.2783 9.25449 13.7978 7.54449 10.6328 6.95874C11.6895 6.04675 13.3073 5.2495 15.75 5.2495ZM24 8.99949C24 8.97924 23.9895 8.96199 23.988 8.94174C23.9865 8.92074 23.9932 8.89974 23.9895 8.87799C23.9813 8.82699 23.061 3.7495 15.75 3.7495C12.051 3.7495 9.91579 5.332 8.72929 6.77124C8.56729 6.76599 8.41804 6.74949 8.25004 6.74949C1.78356 6.74949 0.106561 11.5585 0.0390609 11.7625C0.029311 11.7902 0.0368109 11.8195 0.030811 11.848C0.019561 11.899 6.1035e-05 11.9462 6.1035e-05 11.9995V17.2495C6.1035e-05 17.2735 0.012061 17.293 0.012811 17.3162C0.017311 17.3665 0.027811 17.413 0.0428109 17.4625C0.0578109 17.512 0.0758108 17.5585 0.100561 17.6035C0.111061 17.623 0.112561 17.6455 0.125311 17.6642C0.30081 17.9297 2.02056 20.2495 8.25004 20.2495C14.4683 20.2495 16.197 17.9312 16.374 17.6665C16.3868 17.6462 16.389 17.623 16.4003 17.602C16.4235 17.5592 16.4415 17.515 16.4558 17.4662C16.4708 17.4182 16.4805 17.3725 16.485 17.323C16.4873 17.2975 16.5 17.2757 16.5 17.2495V17.2322C22.1003 17.053 23.7038 14.92 23.874 14.6665C23.8868 14.6462 23.889 14.623 23.9002 14.602C23.9235 14.5592 23.9415 14.515 23.9557 14.467C23.9708 14.4182 23.9805 14.3725 23.985 14.323C23.9872 14.2975 24 14.2757 24 14.2495V8.99949Z" fill="black"/>
</svg>

<svg xmlns="http://www.w3.org/2000/svg" width="24" height="24" fill="none" viewBox="0 0 24 24"><path fill="currentColor" fill-rule="evenodd" d="M16.496 11.982c3.042-.096 4.912-.765 6.004-1.402v3.385c-.43.418-2.018 1.63-6 1.768v-3.734zM1.5 16.968v-3.387C2.68 14.27 4.754 15 8.25 15c3.494 0 5.57-.73 6.75-1.42v3.386c-.457.444-2.208 1.785-6.75 1.785-4.567 0-6.309-1.35-6.75-1.782M8.25 8.25c5.004 0 6.346 2.596 6.668 3.543-.569.507-2.373 1.707-6.668 1.707-4.18 0-5.998-1.133-6.613-1.656.508-1.006 2.244-3.594 6.613-3.594m7.5-3c5.01 0 6.349 2.601 6.668 3.543-.56.498-2.319 1.666-6.465 1.704-.675-1.242-2.155-2.952-5.32-3.537 1.057-.912 2.674-1.71 5.117-1.71M24 9c0-.02-.01-.037-.012-.057s.005-.042.002-.064c-.009-.051-.929-5.129-8.24-5.129-3.699 0-5.834 1.583-7.02 3.022-.163-.005-.312-.022-.48-.022-6.466 0-8.143 4.81-8.21 5.014-.01.027-.003.056-.01.085C.02 11.9 0 11.947 0 12v5.25c0 .024.012.044.013.067q.007.074.03.146.022.074.058.142c.01.019.012.041.024.06.176.266 1.896 2.585 8.125 2.585 6.218 0 7.947-2.318 8.124-2.582.013-.02.015-.044.026-.065a.7.7 0 0 0 .056-.136.7.7 0 0 0 .029-.143c.002-.026.015-.047.015-.073v-.018c5.6-.179 7.204-2.312 7.374-2.565.013-.02.015-.044.026-.065a.7.7 0 0 0 .056-.135.7.7 0 0 0 .029-.144c.002-.026.015-.047.015-.074z" clip-rule="evenodd"/></svg>
